X: 34417
T: Richard Dwyer's
R: reel
M: 4/4
K: Dmajor
A2|d/d/d fd cdec|defd AdBA|GB B/B/B Adfd|gfed cdec|
d/d/d fd cdec|defd AdBA|GB B/B/B Ad d/d/d|cdec d2||
ge|fB B/B/B fBdB|Aa (3aaa agfe|fB B/B/B fBdB|Aa (3aaa agfe|
d/d/d fd cdec|defd AdBA|GB B/B/B Ad d/d/d|cdec d/d/d||

